X: 10466
T: Donegal, The
R: reel
M: 4/4
K: Dmajor
|:D3E FDFA|dF F2 BFAF|E3F GFGA|(3Bcd AF EGFE|
D3E FDFA|dF F2 A2 de|f3e dBAG|1 FGEF D2:|2 FGEF D3A||
|:defg afdf|afdf a2gf|e3f gfed|(3Bcd ef g2 fe|
defg afdf|afdf a3g|f2 ef dBAG|1 FGEF D3A:|2 FGEF D2||

